**harm	**harte	**timestamp	**phrase	**leadinstrument	**kern
*M4/4	*M4/4	*	*	*	*
*A:	*A:	*	*	*	*A:
1r;	N	0	.	r	1r;
=1	=1	=1	=1	=1	=1
*>A_intro	*>A_intro	*>A_intro	*>A_intro	*>A_intro	*>A_intro
1I	A:maj	0.511	newline	guitar	1A 1cc# 1ee
=2	=2	=2	=2	=2	=2
1I	A:maj	2.058	.	guitar	1A 1cc# 1ee
=3	=3	=3	=3	=3	=3
1-III	C:maj	3.605	.	guitar	1C 1e 1g
=4	=4	=4	=4	=4	=4
1-III	C:maj	5.152	.	guitar	1C 1e 1g
=5	=5	=5	=5	=5	=5
1I	A:maj	6.698	newline	guitar	1A 1cc# 1ee
=6	=6	=6	=6	=6	=6
1I	A:maj	8.222	.	guitar	1A 1cc# 1ee
=7	=7	=7	=7	=7	=7
1-III	C:maj	9.745	.	guitar	1C 1e 1g
=8	=8	=8	=8	=8	=8
1-III	C:maj	11.269	.	guitar	1C 1e 1g
=9	=9	=9	=9	=9	=9
1I	A:maj	12.792	newline	guitar	1A 1cc# 1ee
=10	=10	=10	=10	=10	=10
1I	A:maj	14.381	.	guitar	1A 1cc# 1ee
=11	=11	=11	=11	=11	=11
1-III	C:maj	15.97	.	guitar	1C 1e 1g
=12	=12	=12	=12	=12	=12
1-III	C:maj	17.559	.	guitar	1C 1e 1g
=13	=13	=13	=13	=13	=13
1I	A:maj	19.148	newline	guitar	1A 1cc# 1ee
=14	=14	=14	=14	=14	=14
1I	A:maj	20.748	.	guitar	1A 1cc# 1ee
=15	=15	=15	=15	=15	=15
1-III	C:maj	22.349	.	guitar	1C 1e 1g
=16	=16	=16	=16	=16	=16
1-III	C:maj	23.949	.	guitar	1C 1e 1g
=17	=17	=17	=17	=17	=17
*>A_solo	*>A_solo	*>A_solo	*>A_solo	*>A_solo	*>A_solo
1I	A:maj	25.55	newline	guitar	1A 1cc# 1ee
=18	=18	=18	=18	=18	=18
1I	A:maj	27.127	.	guitar	1A 1cc# 1ee
=19	=19	=19	=19	=19	=19
1-III	C:maj	28.704	.	guitar	1C 1e 1g
=20	=20	=20	=20	=20	=20
1-III	C:maj	30.281	.	guitar	1C 1e 1g
=21	=21	=21	=21	=21	=21
1I	A:maj	31.859	newline	guitar	1A 1cc# 1ee
=22	=22	=22	=22	=22	=22
1I	A:maj	33.421	.	guitar	1A 1cc# 1ee
=23	=23	=23	=23	=23	=23
1-III	C:maj	34.983	.	guitar	1C 1e 1g
=24	=24	=24	=24	=24	=24
1-III	C:maj	36.545	.	guitar	1C 1e 1g
=25	=25	=25	=25	=25	=25
1I	A:maj	38.107	newline	guitar	1A 1cc# 1ee
=26	=26	=26	=26	=26	=26
1I	A:maj	39.655	.	guitar	1A 1cc# 1ee
=27	=27	=27	=27	=27	=27
1-III	C:maj	41.203	.	guitar	1C 1e 1g
=28	=28	=28	=28	=28	=28
1-III	C:maj	42.751	.	guitar	1C 1e 1g
=29	=29	=29	=29	=29	=29
1I	A:maj	44.299	newline	guitar	1A 1cc# 1ee
=30	=30	=30	=30	=30	=30
1V	E:maj	45.86	.	guitar	1E 1g# 1b
=31	=31	=31	=31	=31	=31
*>B_verse	*>B_verse	*>B_verse	*>B_verse	*>B_verse	*>B_verse
1V	E:maj	47.42	newline	voice	1E 1g# 1b
=32	=32	=32	=32	=32	=32
1V	E:maj	48.999	.	voice	1E 1g# 1b
=33	=33	=33	=33	=33	=33
1V	E:maj	50.577	.	voice	1E 1g# 1b
=34	=34	=34	=34	=34	=34
1V	E:maj	52.155	.	voice	1E 1g# 1b
=35	=35	=35	=35	=35	=35
1IV	D:maj	53.733	newline	voice	1D 1f# 1a
=36	=36	=36	=36	=36	=36
1IV	D:maj	55.32	.	voice	1D 1f# 1a
=37	=37	=37	=37	=37	=37
1V	E:maj	56.907	.	voice	1E 1g# 1b
=38	=38	=38	=38	=38	=38
1V	E:maj	58.493	.	voice	1E 1g# 1b
=39	=39	=39	=39	=39	=39
*>C_chorus	*>C_chorus	*>C_chorus	*>C_chorus	*>C_chorus	*>C_chorus
1I	A:maj	60.08	newline	voice	1A 1cc# 1ee
=40	=40	=40	=40	=40	=40
2-III	C:maj	61.77	.	voice	2C 2e 2g
4II	B:maj	62.614	.	voice	4B 4dd# 4ff#
4-II	B-:maj	63.037	.	voice	4B- 4dd 4ff
=41	=41	=41	=41	=41	=41
1I	A:maj	63.459	.	voice	1A 1cc# 1ee
=42	=42	=42	=42	=42	=42
2-III	C:maj	65.149	.	voice	2C 2e 2g
4II	B:maj	65.994	.	voice	4B 4dd# 4ff#
4-II	B-:maj	66.416	.	voice	4B- 4dd 4ff
=43	=43	=43	=43	=43	=43
1I	A:maj	66.839	newline	voice	1A 1cc# 1ee
=44	=44	=44	=44	=44	=44
2-III	C:maj	68.564	.	voice	2C 2e 2g
4II	B:maj	69.427	.	voice	4B 4dd# 4ff#
4-II	B-:maj	69.858	.	voice	4B- 4dd 4ff
=45	=45	=45	=45	=45	=45
1II	B:maj	70.289	.	voice	1B 1dd# 1ff#
=46	=46	=46	=46	=46	=46
*>B_verse	*>B_verse	*>B_verse	*>B_verse	*>B_verse	*>B_verse
1V	E:maj	72.015	newline	voice	1E 1g# 1b
=47	=47	=47	=47	=47	=47
1V	E:maj	73.618	.	voice	1E 1g# 1b
=48	=48	=48	=48	=48	=48
1V	E:maj	75.221	.	voice	1E 1g# 1b
=49	=49	=49	=49	=49	=49
1V	E:maj	76.825	.	voice	1E 1g# 1b
=50	=50	=50	=50	=50	=50
1IV	D:maj	78.428	newline	voice	1D 1f# 1a
=51	=51	=51	=51	=51	=51
1IV	D:maj	80.008	.	voice	1D 1f# 1a
=52	=52	=52	=52	=52	=52
1V	E:maj	81.588	.	voice	1E 1g# 1b
=53	=53	=53	=53	=53	=53
1V	E:maj	83.168	.	voice	1E 1g# 1b
=54	=54	=54	=54	=54	=54
*>C_chorus	*>C_chorus	*>C_chorus	*>C_chorus	*>C_chorus	*>C_chorus
1I	A:maj	84.748	newline	voice	1A 1cc# 1ee
=55	=55	=55	=55	=55	=55
2-III	C:maj	86.455	.	voice	2C 2e 2g
4II	B:maj	87.308	.	voice	4B 4dd# 4ff#
4-II	B-:maj	87.735	.	voice	4B- 4dd 4ff
=56	=56	=56	=56	=56	=56
1I	A:maj	88.162	.	voice	1A 1cc# 1ee
=57	=57	=57	=57	=57	=57
2-III	C:maj	89.869	.	voice	2C 2e 2g
4II	B:maj	90.722	.	voice	4B 4dd# 4ff#
4-II	B-:maj	91.149	.	voice	4B- 4dd 4ff
=58	=58	=58	=58	=58	=58
1I	A:maj	91.576	newline	voice	1A 1cc# 1ee
=59	=59	=59	=59	=59	=59
2-III	C:maj	93.308	.	voice	2C 2e 2g
4II	B:maj	94.174	.	voice	4B 4dd# 4ff#
4-II	B-:maj	94.607	.	voice	4B- 4dd 4ff
=60	=60	=60	=60	=60	=60
1II	B:maj	95.04	.	voice	1B 1dd# 1ff#
=61	=61	=61	=61	=61	=61
*>D_bridge	*>D_bridge	*>D_bridge	*>D_bridge	*>D_bridge	*>D_bridge
1V	E:maj	96.772	newline	voice	1E 1g# 1b
=62	=62	=62	=62	=62	=62
1V	E:maj	98.371	.	voice	1E 1g# 1b
=63	=63	=63	=63	=63	=63
1V	E:maj	99.969	.	voice	1E 1g# 1b
=64	=64	=64	=64	=64	=64
1V	E:maj	101.567	.	voice	1E 1g# 1b
=65	=65	=65	=65	=65	=65
1iii	C#:min	103.165	newline	voice	1C# 1e 1g#
=66	=66	=66	=66	=66	=66
1I	A:maj	104.797	.	voice	1A 1cc# 1ee
=67	=67	=67	=67	=67	=67
1VI	F#:maj	106.429	.	voice	1F# 1a# 1cc#
=68	=68	=68	=68	=68	=68
1V	E:maj	108.06	.	voice	1E 1g# 1b
=69	=69	=69	=69	=69	=69
1iii	C#:min	109.692	newline	voice	1C# 1e 1g#
=70	=70	=70	=70	=70	=70
1I	A:maj	111.309	.	voice	1A 1cc# 1ee
=71	=71	=71	=71	=71	=71
1VI	F#:maj	112.925	.	voice	1F# 1a# 1cc#
=72	=72	=72	=72	=72	=72
1ii	B:sus4	114.542	->newline	voice	1B 1dd 1ff#
=73	=73	=73	=73	=73	=73
1II	B:maj	116.144	.	voice	1B 1dd# 1ff#
=74	=74	=74	=74	=74	=74
1II	B:maj	117.746	.	voice	1B 1dd# 1ff#
=75	=75	=75	=75	=75	=75
1II	B:maj	119.347	.	voice	1B 1dd# 1ff#
=76	=76	=76	=76	=76	=76
*>A_solo	*>A_solo	*>A_solo	*>A_solo	*>A_solo	*>A_solo
1I	A:maj	120.949	newline	guitar	1A 1cc# 1ee
=77	=77	=77	=77	=77	=77
1I	A:maj	122.544	.	guitar	1A 1cc# 1ee
=78	=78	=78	=78	=78	=78
1-III	C:maj	124.139	.	guitar	1C 1e 1g
=79	=79	=79	=79	=79	=79
1-III	C:maj	125.734	.	guitar	1C 1e 1g
=80	=80	=80	=80	=80	=80
1I	A:maj	127.329	newline	guitar	1A 1cc# 1ee
=81	=81	=81	=81	=81	=81
1I	A:maj	128.911	.	guitar	1A 1cc# 1ee
=82	=82	=82	=82	=82	=82
1-III	C:maj	130.493	.	guitar	1C 1e 1g
=83	=83	=83	=83	=83	=83
1-III	C:maj	132.075	.	guitar	1C 1e 1g
=84	=84	=84	=84	=84	=84
1I	A:maj	133.657	newline	guitar	1A 1cc# 1ee
=85	=85	=85	=85	=85	=85
1I	A:maj	135.222	.	guitar	1A 1cc# 1ee
=86	=86	=86	=86	=86	=86
1-III	C:maj	136.788	.	guitar	1C 1e 1g
=87	=87	=87	=87	=87	=87
1-III	C:maj	138.354	.	guitar	1C 1e 1g
=88	=88	=88	=88	=88	=88
1I	A:maj	139.92	newline	guitar	1A 1cc# 1ee
=89	=89	=89	=89	=89	=89
1V	E:maj	141.5	.	guitar	1E 1g# 1b
=90	=90	=90	=90	=90	=90
*>E_interlude	*>E_interlude	*>E_interlude	*>E_interlude	*>E_interlude	*>E_interlude
1I	A:1	143.08	newline	guitar	1A 1cc# 1ee
=91	=91	=91	=91	=91	=91
1V	E:1	144.845	.	guitar	1E 1g# 1b
=92	=92	=92	=92	=92	=92
1I	A:1	146.61	.	guitar	1A 1cc# 1ee
=93	=93	=93	=93	=93	=93
1V	E:1	148.375	.	guitar	1E 1g# 1b
=94	=94	=94	=94	=94	=94
1I	A:1	150.14	newline	guitar	1A 1cc# 1ee
=95	=95	=95	=95	=95	=95
1V	E:1	151.803	.	guitar	1E 1g# 1b
=96	=96	=96	=96	=96	=96
1I	A:1	153.466	.	guitar	1A 1cc# 1ee
=97	=97	=97	=97	=97	=97
1V	E:maj	155.128	.	guitar	1E 1g# 1b
=98	=98	=98	=98	=98	=98
*>C_chorus	*>C_chorus	*>C_chorus	*>C_chorus	*>C_chorus	*>C_chorus
1I	A:maj	156.791	newline	voice	1A 1cc# 1ee
=99	=99	=99	=99	=99	=99
2-III	C:maj	158.494	.	voice	2C 2e 2g
4II	B:maj	159.346	.	voice	4B 4dd# 4ff#
4-II	B-:maj	159.771	.	voice	4B- 4dd 4ff
=100	=100	=100	=100	=100	=100
1I	A:maj	160.197	.	voice	1A 1cc# 1ee
=101	=101	=101	=101	=101	=101
2-III	C:maj	161.9	.	voice	2C 2e 2g
4II	B:maj	162.752	.	voice	4B 4dd# 4ff#
4-II	B-:maj	163.178	.	voice	4B- 4dd 4ff
=102	=102	=102	=102	=102	=102
1I	A:maj	163.603	newline	voice	1A 1cc# 1ee
=103	=103	=103	=103	=103	=103
2-III	C:maj	165.32	.	voice	2C 2e 2g
4II	B:maj	166.179	.	voice	4B 4dd# 4ff#
4-II	B-:maj	166.608	.	voice	4B- 4dd 4ff
=104	=104	=104	=104	=104	=104
1II	B:maj	167.037	.	voice	1B 1dd# 1ff#
=105	=105	=105	=105	=105	=105
*>B2_verse	*>B2_verse	*>B2_verse	*>B2_verse	*>B2_verse	*>B2_verse
1V	E:maj	168.754	newline	voice	1E 1g# 1b
=106	=106	=106	=106	=106	=106
1V	E:maj	170.356	.	voice	1E 1g# 1b
=107	=107	=107	=107	=107	=107
1V	E:maj	171.958	.	voice	1E 1g# 1b
=108	=108	=108	=108	=108	=108
1V	E:maj	173.56	.	voice	1E 1g# 1b
=109	=109	=109	=109	=109	=109
1IV	D:maj	175.162	newline	voice	1D 1f# 1a
=110	=110	=110	=110	=110	=110
1IV	D:maj	176.774	.	voice	1D 1f# 1a
=111	=111	=111	=111	=111	=111
1V	E:maj	178.385	.	voice	1E 1g# 1b
=112	=112	=112	=112	=112	=112
1V	E:maj	179.996	.	voice	1E 1g# 1b
=113	=113	=113	=113	=113	=113
1IV	D:maj	181.608	newline	voice	1D 1f# 1a
=114	=114	=114	=114	=114	=114
1IV	D:maj	183.221	.	voice	1D 1f# 1a
=115	=115	=115	=115	=115	=115
1V	E:maj	184.835	.	voice	1E 1g# 1b
=116	=116	=116	=116	=116	=116
1V	E:maj	186.448	.	voice	1E 1g# 1b
=117	=117	=117	=117	=117	=117
1V	E:maj	188.062	.	voice	1E 1g# 1b
=118	=118	=118	=118	=118	=118
1V	E:maj	189.675	.	voice	1E 1g# 1b
=119	=119	=119	=119	=119	=119
1I	A:maj	191.289	newline	guitar	1A 1cc# 1ee
=120	=120	=120	=120	=120	=120
1I	A:maj	192.899	.	guitar	1A 1cc# 1ee
=121	=121	=121	=121	=121	=121
1-III	C:maj	194.51	.	guitar	1C 1e 1g
=122	=122	=122	=122	=122	=122
1-III	C:maj	196.12	.	guitar	1C 1e 1g
=123	=123	=123	=123	=123	=123
1I	A:maj	197.731	newline	guitar	1A 1cc# 1ee
=124	=124	=124	=124	=124	=124
1I	A:maj	199.356	.	guitar	1A 1cc# 1ee
=125	=125	=125	=125	=125	=125
1-III	C:maj	200.981	.	guitar	1C 1e 1g
=126	=126	=126	=126	=126	=126
1-III	C:maj	202.607	.	guitar	1C 1e 1g
=127	=127	=127	=127	=127	=127
*>_fadeout	*>_fadeout	*>_fadeout	*>_fadeout	*>_fadeout	*>_fadeout
1I	A:maj	204.232	newline	guitar	1A 1cc# 1ee
=128	=128	=128	=128	=128	=128
1I	A:maj	205.339	.	guitar	1A 1cc# 1ee
=129	=129	=129	=129	=129	=129
1II	B:maj	206.446	.	guitar	1B 1dd# 1ff#
=130	=130	=130	=130	=130	=130
1II	B:maj	207.554	.	guitar	1B 1dd# 1ff#
=131	=131	=131	=131	=131	=131
1II	B:maj	208.661	.	guitar	1B 1dd# 1ff#
=132	=132	=132	=132	=132	=132
1II	B:maj	209.768	.	guitar	1B 1dd# 1ff#
=133	=133	=133	=133	=133	=133
1II	B:maj	210.875	.	guitar	1B 1dd# 1ff#
=134	=134	=134	=134	=134	=134
1II	B:maj	211.982	.	guitar	1B 1dd# 1ff#
1r;	N	213.09	.	r	1r;
1r;	N	214.544	.	r	1r;
*-	*-	*-	*-	*-	*-
!!!OTL: Journey To The Center Of The Mind
!!!COC: The Amboy Dukes
!!!BillboardChartDate: 1968/07/20
!!!BillboardPeak: 16
!!!BillboardWeeksOnChart: 12
!!!SampleTargetRank: 46
!!!SampleActualRank: 47
!!!SampleID#: 0828
!!!RDF**harmony: **recip + pitch class of root + harmonic quality
!!!RDF**harte: Chris Harte's syntax, used by MIREX
!!!RDF**phrase: newline = linebreak in original McGill transcription
!!!RDF**timestamp: McGill audio timestamp in seconds
!!!RDF**leadinstrument: original McGill primary instrumentation annotation
!!!RDT: 2017/01/12/
!!!ENC: Nathaniel Condit-Schultz
!!!EST: Awating manual error checking and editing.
